inst/assets/svg/wi-wind-beaufort-3.svg

<?xml version="1.0" encoding="UTF-8"?>
<svg xmlns="http://www.w3.org/2000/svg" xmlns:xlink="http://www.w3.org/1999/xlink" width="30pt" height="30pt" viewBox="0 0 30 30" version="1.1">
<g id="surface1056">
<path style=" stroke:none;fill-rule:nonzero;fill:rgb(0%,0%,0%);fill-opacity:1;" d="M 5.03125 13.5 C 5.03125 13.679688 5.089844 13.808594 5.199219 13.898438 C 5.320313 14.011719 5.460938 14.070313 5.621094 14.070313 L 16.019531 14.070313 C 16.191406 14.070313 16.351563 14.128906 16.480469 14.261719 C 16.609375 14.378906 16.679688 14.539063 16.679688 14.71875 C 16.679688 14.898438 16.609375 15.058594 16.480469 15.191406 C 16.351563 15.320313 16.199219 15.390625 16.019531 15.390625 C 15.839844 15.390625 15.679688 15.320313 15.550781 15.179688 C 15.429688 15.070313 15.289063 15.019531 15.148438 15.019531 C 14.988281 15.019531 14.851563 15.070313 14.738281 15.179688 C 14.628906 15.289063 14.578125 15.421875 14.578125 15.570313 C 14.578125 15.730469 14.640625 15.871094 14.75 15.980469 C 15.109375 16.339844 15.53125 16.511719 16.019531 16.511719 C 16.511719 16.511719 16.929688 16.339844 17.28125 15.988281 C 17.628906 15.640625 17.800781 15.21875 17.800781 14.71875 C 17.800781 14.230469 17.628906 13.800781 17.28125 13.449219 C 16.929688 13.101563 16.511719 12.921875 16.019531 12.921875 L 5.621094 12.921875 C 5.460938 12.921875 5.320313 12.980469 5.199219 13.089844 C 5.089844 13.210938 5.03125 13.339844 5.03125 13.5 Z M 5.03125 11.480469 C 5.03125 11.648438 5.089844 11.78125 5.199219 11.871094 C 5.320313 11.980469 5.460938 12.03125 5.621094 12.03125 L 19.429688 12.03125 C 19.921875 12.03125 20.351563 11.851563 20.699219 11.511719 C 21.050781 11.160156 21.21875 10.738281 21.21875 10.238281 C 21.21875 9.75 21.050781 9.328125 20.699219 8.980469 C 20.351563 8.628906 19.929688 8.460938 19.429688 8.460938 C 18.941406 8.460938 18.519531 8.628906 18.160156 8.96875 C 18.058594 9.089844 18 9.230469 18 9.378906 C 18 9.539063 18.050781 9.679688 18.160156 9.78125 C 18.269531 9.878906 18.398438 9.929688 18.558594 9.929688 C 18.710938 9.929688 18.851563 9.878906 18.96875 9.769531 C 19.089844 9.648438 19.238281 9.589844 19.421875 9.589844 C 19.589844 9.589844 19.75 9.648438 19.878906 9.769531 C 20.011719 9.890625 20.078125 10.039063 20.078125 10.21875 C 20.078125 10.398438 20.011719 10.558594 19.878906 10.691406 C 19.75 10.820313 19.601563 10.890625 19.421875 10.890625 L 5.621094 10.890625 C 5.460938 10.890625 5.320313 10.949219 5.199219 11.058594 C 5.089844 11.179688 5.03125 11.320313 5.03125 11.480469 Z M 18.121094 19.519531 C 18.121094 19.789063 18.171875 20.050781 18.28125 20.308594 C 18.390625 20.570313 18.550781 20.808594 18.78125 21.058594 C 19.011719 21.300781 19.328125 21.488281 19.738281 21.640625 C 20.148438 21.789063 20.640625 21.859375 21.199219 21.859375 C 22.410156 21.859375 23.28125 21.621094 23.828125 21.140625 C 24.378906 20.660156 24.648438 20.011719 24.648438 19.191406 C 24.648438 18.828125 24.550781 18.5 24.351563 18.199219 C 24.148438 17.898438 23.878906 17.730469 23.558594 17.691406 L 23.558594 17.671875 C 23.988281 17.589844 24.351563 17.398438 24.628906 17.089844 C 24.910156 16.78125 25.058594 16.398438 25.058594 15.96875 C 25.058594 15.660156 25 15.390625 24.890625 15.148438 C 24.78125 14.910156 24.628906 14.71875 24.449219 14.570313 C 24.269531 14.421875 24.058594 14.300781 23.808594 14.199219 C 23.558594 14.101563 23.308594 14.039063 23.058594 14 C 22.808594 13.960938 22.539063 13.941406 22.261719 13.941406 C 21.339844 13.941406 20.578125 14.160156 19.980469 14.609375 C 19.390625 15.058594 19.019531 15.730469 18.878906 16.621094 L 20.910156 16.621094 C 20.949219 16.308594 21.078125 16.070313 21.289063 15.898438 C 21.5 15.730469 21.761719 15.640625 22.070313 15.640625 C 22.359375 15.640625 22.578125 15.699219 22.75 15.820313 C 22.921875 15.941406 23 16.109375 23 16.320313 C 23 16.789063 22.578125 17.019531 21.730469 17.019531 L 21.261719 17.019531 L 20.96875 18.421875 L 21.410156 18.421875 C 22.089844 18.421875 22.429688 18.648438 22.429688 19.121094 C 22.429688 19.429688 22.320313 19.671875 22.089844 19.839844 C 21.859375 20.011719 21.589844 20.089844 21.261719 20.089844 C 20.878906 20.089844 20.601563 19.980469 20.429688 19.75 C 20.261719 19.539063 20.191406 19.238281 20.21875 18.859375 L 18.148438 18.859375 C 18.128906 19.058594 18.121094 19.269531 18.121094 19.519531 Z M 18.121094 19.519531 "/>
</g>
</svg>

<?xml version="1.0" encoding="utf-8"?>
<!-- Generator: Adobe Illustrator 22.0.1, SVG Export Plug-In . SVG Version: 6.00 Build 0)  -->
<svg version="1.1" id="Layer_1" xmlns="http://www.w3.org/2000/svg" xmlns:xlink="http://www.w3.org/1999/xlink" x="0px" y="0px"
	 viewBox="0 0 30 30" style="enable-background:new 0 0 30 30;" xml:space="preserve">
<path d="M5.03,13.5c0,0.18,0.06,0.31,0.17,0.4c0.12,0.11,0.26,0.17,0.42,0.17h10.4c0.17,0,0.33,0.06,0.46,0.19
	c0.13,0.12,0.2,0.28,0.2,0.46s-0.07,0.34-0.2,0.47s-0.28,0.2-0.46,0.2c-0.18,0-0.34-0.07-0.47-0.21c-0.12-0.11-0.26-0.16-0.4-0.16
	c-0.16,0-0.3,0.05-0.41,0.16c-0.11,0.11-0.16,0.24-0.16,0.39c0,0.16,0.06,0.3,0.17,0.41c0.36,0.36,0.78,0.53,1.27,0.53
	s0.91-0.17,1.26-0.52c0.35-0.35,0.52-0.77,0.52-1.27c0-0.49-0.17-0.92-0.52-1.27c-0.35-0.35-0.77-0.53-1.26-0.53H5.62
	c-0.16,0-0.3,0.06-0.42,0.17C5.09,13.21,5.03,13.34,5.03,13.5z M5.03,11.48c0,0.17,0.06,0.3,0.17,0.39
	c0.12,0.11,0.26,0.16,0.42,0.16h13.81c0.49,0,0.92-0.18,1.27-0.52c0.35-0.35,0.52-0.77,0.52-1.27c0-0.49-0.17-0.91-0.52-1.26
	s-0.77-0.52-1.27-0.52c-0.49,0-0.91,0.17-1.27,0.51C18.06,9.09,18,9.23,18,9.38c0,0.16,0.05,0.3,0.16,0.4
	c0.11,0.1,0.24,0.15,0.4,0.15c0.15,0,0.29-0.05,0.41-0.16c0.12-0.12,0.27-0.18,0.45-0.18c0.17,0,0.33,0.06,0.46,0.18
	c0.13,0.12,0.2,0.27,0.2,0.45c0,0.18-0.07,0.34-0.2,0.47c-0.13,0.13-0.28,0.2-0.46,0.2H5.62c-0.16,0-0.3,0.06-0.42,0.17
	C5.09,11.18,5.03,11.32,5.03,11.48z M18.12,19.52c0,0.27,0.05,0.53,0.16,0.79c0.11,0.26,0.27,0.5,0.5,0.75
	c0.23,0.24,0.55,0.43,0.96,0.58s0.9,0.22,1.46,0.22c1.21,0,2.08-0.24,2.63-0.72c0.55-0.48,0.82-1.13,0.82-1.95
	c0-0.36-0.1-0.69-0.3-0.99c-0.2-0.3-0.47-0.47-0.79-0.51v-0.02c0.43-0.08,0.79-0.27,1.07-0.58c0.28-0.31,0.43-0.69,0.43-1.12
	c0-0.31-0.06-0.58-0.17-0.82c-0.11-0.24-0.26-0.43-0.44-0.58c-0.18-0.15-0.39-0.27-0.64-0.37c-0.25-0.1-0.5-0.16-0.75-0.2
	c-0.25-0.04-0.52-0.06-0.8-0.06c-0.92,0-1.68,0.22-2.28,0.67c-0.59,0.45-0.96,1.12-1.1,2.01h2.03c0.04-0.31,0.17-0.55,0.38-0.72
	c0.21-0.17,0.47-0.26,0.78-0.26c0.29,0,0.51,0.06,0.68,0.18S23,16.11,23,16.32c0,0.47-0.42,0.7-1.27,0.7h-0.47l-0.29,1.4h0.44
	c0.68,0,1.02,0.23,1.02,0.7c0,0.31-0.11,0.55-0.34,0.72c-0.23,0.17-0.5,0.25-0.83,0.25c-0.38,0-0.66-0.11-0.83-0.34
	c-0.17-0.21-0.24-0.51-0.21-0.89h-2.07C18.13,19.06,18.12,19.27,18.12,19.52z"/>
</svg>
